logo/sysdig-icon.svg

<?xml version="1.0" encoding="UTF-8"?>
<svg width="256px" height="317px" viewBox="0 0 256 317" version="1.1" xmlns="http://www.w3.org/2000/svg" xmlns:xlink="http://www.w3.org/1999/xlink" preserveAspectRatio="xMidYMid">
    <g>
        <path d="M198.813842,98.6548438 C202.530279,98.664399 205.956229,100.666026 207.789411,103.898894 L243.375433,165.534202 C268.742264,209.470518 254.837747,270.329926 211.033939,307.096264 C210.108407,307.873529 209.053671,308.482365 207.917706,308.895078 C193.830178,314.032191 178.952969,316.666738 163.958029,316.679724 C124.504769,316.679724 87.6802191,298.217854 69.1513297,266.124142 L26.8016617,192.77376 C25.4292962,190.397031 25.0573167,187.572467 25.7675579,184.92147 C26.4777992,182.270472 28.2120792,180.010207 30.5888591,178.637928 L59.4349796,161.983297 C62.6382592,160.110751 66.5988977,160.096456 69.8156107,161.945831 C73.0323236,163.795206 75.0127576,167.225183 75.0062269,170.935626 C74.9996962,174.646069 73.0072005,178.069053 69.7839974,179.907093 L49.8997747,191.38664 L87.0747424,255.775124 C107.227045,290.679842 155.140511,305.234644 199.117805,290.056748 C234.248858,259.562322 245.602791,210.787937 225.45202,175.88322 L189.865998,114.247912 C187.982593,111.044042 187.9618,107.076271 189.811522,103.852837 C191.661244,100.629404 195.097405,98.6453569 198.813842,98.6548438 Z M90.0737861,195.244687 C90.1943759,195.461357 96.7348148,207.111431 102.96874,218.139362 L103.552067,219.171039 C106.850173,225.002716 110.002449,230.552481 112.000392,234.012813 C126.574342,259.256711 153.265487,268.899914 183.401452,259.790572 C188.872976,258.138054 194.648153,261.233969 196.300672,266.705492 C197.953191,272.177015 194.857276,277.952192 189.385753,279.604711 C180.419747,282.368838 171.096089,283.799852 161.713821,283.851857 C133.611608,284.164638 107.61712,268.988149 94.0754471,244.361831 C92.0506809,240.855014 88.9393614,235.379624 85.6840172,229.625145 L85.1082415,228.607095 L85.1082415,228.607095 L84.5306267,227.585315 L84.5306267,227.585315 L83.9523239,226.561867 C83.7595695,226.220669 83.5668923,225.879536 83.3744841,225.538814 L82.7982585,224.51822 C77.4312664,215.010572 72.4255915,206.093819 71.9925895,205.316817 C69.2112479,200.323833 71.0041386,194.021496 75.997123,191.240154 C80.9901074,188.458812 87.2924441,190.251703 90.0737861,195.244687 Z M19.2716914,5.10585289 L141.537008,216.876022 C144.871917,222.650072 154.32555,232.558673 166.219471,228.720541 C171.659585,226.967344 177.490916,229.956181 179.244114,235.396295 C180.997311,240.836409 178.008474,246.66774 172.56836,248.420938 C168.784024,249.654378 164.829719,250.286937 160.849456,250.295579 C144.504265,250.295579 130.649534,239.412317 123.613213,227.225423 L1.34827881,15.4548706 C-1.45536393,10.5105662 0.253414433,4.23044182 5.17569332,1.3883072 C10.0979722,-1.45382742 16.3912379,0.205899175 19.2716914,5.10585289 Z M109.027773,66.0675149 L138.162653,116.531184 L156.693075,105.831748 C161.63824,103.019055 167.926512,104.725577 170.771334,109.652329 C173.616157,114.579081 171.950605,120.878328 167.042475,123.75516 L139.548624,139.629297 C138.080196,140.477132 136.427668,140.950677 134.736789,141.010048 L134.373,141.016 L134.048852,141.011316 C130.47759,140.899309 127.206615,138.949498 125.412026,135.842099 L91.1043603,76.4165326 C88.3007175,71.4722282 90.0094959,65.1921038 94.9317748,62.3499692 C99.8540537,59.5078346 106.147319,61.1675612 109.027773,66.0675149 Z" fill="#00ABC7"></path>
    </g>
</svg>

<svg viewBox="0 0 256 317" xmlns="http://www.w3.org/2000/svg"><path fill="#00ABC7" d="M198.81 98.65c3.71 0 7.14 2.01 8.97 5.24l35.58 61.63c25.36 43.93 11.46 104.79-32.35 141.56 -.93.77-1.99 1.38-3.12 1.79 -14.09 5.13-28.97 7.77-43.96 7.78 -39.46 0-76.28-18.47-94.81-50.56l-42.35-73.36c-1.38-2.38-1.75-5.21-1.04-7.86 .71-2.66 2.44-4.92 4.82-6.29l28.84-16.66c3.2-1.88 7.16-1.89 10.38-.04 3.21 1.84 5.19 5.27 5.19 8.98 -.01 3.71-2 7.13-5.23 8.97L49.84 191.3l37.17 64.38c20.15 34.9 68.06 49.45 112.04 34.28 35.13-30.5 46.48-79.27 26.33-114.18l-35.59-61.64c-1.89-3.21-1.91-7.18-.06-10.4 1.84-3.23 5.28-5.21 9-5.2ZM90.06 195.23c.12.21 6.66 11.86 12.89 22.89l.58 1.03c3.29 5.83 6.45 11.38 8.44 14.84 14.57 25.24 41.26 34.88 71.4 25.77 5.47-1.66 11.24 1.44 12.89 6.91 1.65 5.47-1.45 11.24-6.92 12.89 -8.97 2.76-18.29 4.19-27.68 4.24 -28.11.31-54.1-14.87-67.64-39.5 -2.03-3.51-5.14-8.99-8.4-14.74l-.58-1.02v0l-.58-1.03v0l-.58-1.03c-.2-.35-.39-.69-.58-1.03l-.58-1.03c-5.37-9.51-10.38-18.43-10.81-19.21 -2.79-5-.99-11.3 4-14.08 4.99-2.79 11.29-.99 14.07 4ZM19.25 5.09l122.26 211.77c3.33 5.77 12.78 15.68 24.68 11.84 5.44-1.76 11.27 1.23 13.02 6.67 1.75 5.44-1.24 11.27-6.68 13.02 -3.79 1.23-7.74 1.86-11.72 1.87 -16.35 0-30.2-10.89-37.24-23.08L1.3 15.4C-1.51 10.45.2 4.17 5.12 1.33 10.04-1.52 16.33.14 19.21 5.04ZM109 66.05l29.13 50.46 18.53-10.7c4.94-2.82 11.23-1.11 14.07 3.82 2.84 4.92 1.17 11.22-3.73 14.1l-27.5 15.87c-1.47.84-3.13 1.32-4.82 1.38l-.37 0 -.33-.01c-3.58-.12-6.85-2.07-8.64-5.17L91.03 76.37c-2.81-4.95-1.1-11.23 3.82-14.07 4.92-2.85 11.21-1.19 14.09 3.71Z"/></svg>
